static/images/icons/site_map.svg

<svg
	fill="none"
	height="81"
	viewBox="0 0 78 81"
	width="78"
	xmlns="http://www.w3.org/2000/svg"
>
	<path
		d="m75.8021 61.7647h-8.2748v-4.146c0-.7455-.6095-1.3523-1.358-1.3523h-6.6019v-4.8322h10.5571c.7486 0 1.358-.607 1.358-1.3523v-15.7566c0-.7455-.6095-1.3525-1.358-1.3525h-11.5541v-4.1461c0-.7456-.6096-1.3525-1.3581-1.3525h-16.797l-.0444-4.8323h14.4464c.7487 0 1.3581-.6069 1.3581-1.3522v-19.18036c0-.74551-.6096-1.35226-1.3581-1.35226h-31.6346c-.7487 0-1.3581.60694-1.3581 1.35226v19.18036c0 .7455.6095 1.3522 1.3581 1.3522h14.4715l.0445 4.8323h-16.9143c-.7487 0-1.3581.6069-1.3581 1.3525v4.1461h-11.55408c-.7487 0-1.35804.607-1.35804 1.3525v15.7566c0 .7455.60953 1.3523 1.35804 1.3523h9.72218v4.8322h-5.767c-.7487 0-1.3581.607-1.3581 1.3523v4.1462h-8.27141c-.7487 0-1.358046.6069-1.358046 1.3524v16.3735c0 .7455.609536 1.3522 1.358046 1.3522h19.26231c.7487 0 1.358-.6069 1.358-1.3522v-16.3735c0-.7455-.6095-1.3524-1.358-1.3524h-8.2748v-2.7937h24.4564v2.7937h-8.2748c-.7487 0-1.3582.6069-1.3582 1.3524v16.3735c0 .7455.6095 1.3522 1.3582 1.3522h19.2625c.7487 0 1.358-.6069 1.358-1.3522v-16.3735c0-.7455-.6095-1.3524-1.358-1.3524h-8.2715v-2.7937h24.4531v2.7937h-8.2715c-.7487 0-1.358.6069-1.358 1.3524v16.3735c0 .7455.6095 1.3522 1.358 1.3522h19.2623c.7487 0 1.3581-.6069 1.3581-1.3522v-16.3735c.0003-.7456-.6092-1.3526-1.3579-1.3526zm-51.2612-58.30291h28.9184v16.47561h-14.4593-.0132-14.4459zm-4.4388 74.67631h-16.54617v-13.6687h16.54597v13.6687zm27.1693 0h-16.546v-13.6687h16.546zm21.4948-29.4086h-23.108v-13.0519h23.1082v13.0519zm-59.53575-13.0519h23.10825v13.0519h-23.10825zm11.08025 15.7566h13.3858c.7487 0 1.3582-.607 1.3582-1.3523v-15.7566c0-.7455-.6095-1.3525-1.3582-1.3525h-11.5541v-2.7937h16.927.0132 16.7713v2.7937h-11.5541c-.7487 0-1.3582.607-1.3582 1.3525v15.7566c0 .7455.6095 1.3523 1.3582 1.3523h12.5512v4.8322h-36.5403zm54.1334 26.7039h-16.5461v-13.6687h16.5461z"
		fill="currentColor"
	/>
</svg>

<svg xmlns="http://www.w3.org/2000/svg" fill="currentColor" viewBox="0 0 78 81">
	<path d="M75.802 61.765h-8.275v-4.146c0-.746-.61-1.353-1.358-1.353h-6.602v-4.832h10.557c.75 0 1.359-.607 1.359-1.352V34.325c0-.745-.61-1.352-1.359-1.352H58.57v-4.146c0-.746-.61-1.353-1.358-1.353H40.415l-.044-4.832h14.446c.749 0 1.358-.607 1.358-1.352V2.11c0-.746-.61-1.353-1.358-1.353H23.183c-.749 0-1.358.607-1.358 1.352v19.18c0 .746.61 1.353 1.358 1.353h14.471l.045 4.832H20.784c-.748 0-1.358.607-1.358 1.353v4.146H7.872c-.748 0-1.358.607-1.358 1.352v15.757c0 .745.61 1.352 1.358 1.352h9.722v4.832h-5.767c-.748 0-1.358.607-1.358 1.353v4.146H2.198c-.749 0-1.358.607-1.358 1.352v16.374c0 .745.61 1.352 1.358 1.352H21.46c.749 0 1.358-.607 1.358-1.352V63.117c0-.745-.61-1.352-1.358-1.352h-8.275V58.97h24.457v2.794h-8.275c-.749 0-1.358.607-1.358 1.352v16.374c0 .745.61 1.352 1.358 1.352h19.262c.75 0 1.358-.607 1.358-1.352V63.117c0-.745-.609-1.352-1.358-1.352h-8.271V58.97h24.453v2.794H56.54c-.75 0-1.358.607-1.358 1.352v16.374c0 .745.61 1.352 1.358 1.352h19.262c.749 0 1.358-.607 1.358-1.352V63.117c0-.745-.61-1.352-1.358-1.352zM24.541 3.462h28.918v16.475H24.541zm-4.439 74.676H3.556V64.47h16.546v13.67zm27.17 0H30.724V64.47h16.546zM68.765 48.73H45.658V35.678h23.108V48.73zM9.23 35.678H32.34V48.73H9.23zm11.08 15.756h13.386c.75 0 1.359-.607 1.359-1.352V34.325c0-.745-.61-1.352-1.359-1.352H22.142v-2.794h33.711v2.794H44.3c-.749 0-1.358.607-1.358 1.352v15.757c0 .745.61 1.352 1.358 1.352H56.85v4.832h-36.54zm54.134 26.704H57.898V64.47h16.546z"/>
</svg>
